desktop/resources/assets/warning.svg

<svg width="16" height="16" viewBox="0 0 16 16" fill="none" xmlns="http://www.w3.org/2000/svg">
<path d="M8.75 10.2497C8.75 10.6639 8.41421 10.9997 8 10.9997C7.58579 10.9997 7.25 10.6639 7.25 10.2497C7.25 9.8355 7.58579 9.49971 8 9.49971C8.41421 9.49971 8.75 9.8355 8.75 10.2497ZM7.5 7.99971C7.5 8.27585 7.72386 8.49971 8 8.49971C8.27614 8.49971 8.5 8.27585 8.5 7.99971V5.49971C8.5 5.22357 8.27614 4.99971 8 4.99971C7.72386 4.99971 7.5 5.22357 7.5 5.49971V7.99971ZM6.90858 2.63712C7.38572 1.78362 8.6139 1.78375 9.09087 2.63734L13.8414 11.139C14.307 11.9722 13.7046 12.9988 12.7502 12.9988H3.24693C2.29235 12.9988 1.69005 11.972 2.15584 11.1388L6.90858 2.63712ZM8.21791 3.12512C8.12251 2.95441 7.87687 2.95438 7.78145 3.12508L3.02871 11.6268C2.93555 11.7934 3.05601 11.9988 3.24693 11.9988H12.7502C12.9411 11.9988 13.0615 11.7935 12.9684 11.6268L8.21791 3.12512Z" fill="#888"/>
</svg>

<svg xmlns="http://www.w3.org/2000/svg" width="16" height="16" fill="none"><path fill="#888" d="M8.75 10.25a.75.75 0 1 1-1.5 0 .75.75 0 0 1 1.5 0M7.5 8a.5.5 0 0 0 1 0V5.5a.5.5 0 0 0-1 0zm-.591-5.363a1.25 1.25 0 0 1 2.182 0l4.75 8.502a1.25 1.25 0 0 1-1.09 1.86H3.246a1.25 1.25 0 0 1-1.091-1.86zm1.309.488a.25.25 0 0 0-.437 0L3.03 11.627a.25.25 0 0 0 .218.372h9.503a.25.25 0 0 0 .218-.372z"/></svg>
